packages/assets/static/images/icons/shield-check.svg

<svg width="24" height="24" viewBox="0 0 24 24" xmlns="http://www.w3.org/2000/svg" fill="currentColor" aria-hidden="true"> <path d="M19.5 2.25049H4.5C4.00272 2.25049 3.52581 2.44803 3.17417 2.79966C2.82254 3.15129 2.625 3.62821 2.625 4.12549V9.37549C2.625 14.4652 5.0925 17.5524 7.1625 19.2464C9.38531 21.0642 11.61 21.6839 11.7037 21.7111C11.8978 21.7636 12.1022 21.7636 12.2963 21.7111C12.39 21.6849 14.6147 21.0642 16.8375 19.2464C18.9075 17.5524 21.375 14.4652 21.375 9.37549V4.12549C21.375 3.62821 21.1775 3.15129 20.8258 2.79966C20.4742 2.44803 19.9973 2.25049 19.5 2.25049ZM19.125 9.37549C19.125 12.7233 17.8978 15.4402 15.4772 17.4521C14.4396 18.3082 13.2637 18.9813 12 19.4424C10.7362 18.9815 9.56023 18.3084 8.52281 17.4521C6.10219 15.4402 4.875 12.7233 4.875 9.37549V4.50049H19.125V9.37549ZM7.45406 12.4214C7.34942 12.3168 7.2664 12.1925 7.20977 12.0558C7.15314 11.9191 7.12399 11.7725 7.12399 11.6246C7.12399 11.4766 7.15314 11.33 7.20977 11.1933C7.2664 11.0566 7.34942 10.9323 7.45406 10.8277C7.55871 10.723 7.68294 10.64 7.81967 10.5834C7.9564 10.5267 8.10294 10.4976 8.25094 10.4976C8.39893 10.4976 8.54548 10.5267 8.6822 10.5834C8.81893 10.64 8.94317 10.723 9.04781 10.8277L10.5 12.2817L14.9541 7.82674C15.1654 7.61539 15.4521 7.49666 15.7509 7.49666C16.0498 7.49666 16.3365 7.61539 16.5478 7.82674C16.7592 8.03808 16.8779 8.32473 16.8779 8.62361C16.8779 8.9225 16.7592 9.20914 16.5478 9.42049L11.2978 14.6705C11.1933 14.7754 11.0691 14.8586 10.9324 14.9154C10.7956 14.9721 10.649 15.0014 10.5009 15.0014C10.3529 15.0014 10.2063 14.9721 10.0695 14.9154C9.93277 14.8586 9.80858 14.7754 9.70406 14.6705L7.45406 12.4214Z"/> </svg>

<svg viewBox="0 0 24 24" xmlns="http://www.w3.org/2000/svg" aria-hidden="true" fill="currentColor"><path d="M19.5 2.25h-15a1.875 1.875 0 0 0-1.875 1.875v5.25c0 5.09 2.468 8.177 4.538 9.871 2.222 1.818 4.447 2.438 4.54 2.465.195.053.4.053.593 0 .094-.026 2.319-.647 4.541-2.465 2.07-1.694 4.538-4.78 4.538-9.87v-5.25A1.875 1.875 0 0 0 19.5 2.25m-.375 7.125c0 3.348-1.227 6.065-3.648 8.077A11.8 11.8 0 0 1 12 19.442a11.8 11.8 0 0 1-3.477-1.99c-2.42-2.012-3.648-4.729-3.648-8.077V4.5h14.25zm-11.67 3.046a1.127 1.127 0 1 1 1.593-1.593l1.452 1.454 4.454-4.455a1.127 1.127 0 1 1 1.594 1.593l-5.25 5.25a1.125 1.125 0 0 1-1.594 0z"/></svg>
